samples/weather-forecast/src/components/Icons/weather-icons/icons/snow.svg

<svg width="48" height="48" viewBox="0 0 48 48" fill="none" xmlns="http://www.w3.org/2000/svg">
<path fill-rule="evenodd" clip-rule="evenodd" d="M33.8127 21.0641C33.8127 21.0641 33.997 22 34.0599 22.009C37.4537 22.4929 40 24.4725 40 28C40 31.866 36.866 35 33 35H15C11.134 35 8 31.866 8 28C8 24.4725 10.6092 21.5544 14.003 21.0705C14.0659 21.0615 14.1275 21.0596 14.1873 21.0641C15.0889 16.4677 19.1395 13 24 13C28.8605 13 32.9111 16.4677 33.8127 21.0641Z" fill="#F3F3F3"/>
<path d="M33 35H33.4118C37.0503 35 40 32.1272 40 28.5833C40 25.3383 37.5268 22.6559 34.3161 22.2266C33.8697 17.0587 29.4215 13 24 13C19.2043 13 15.1702 16.1758 13.9938 20.486C10.5718 21.1766 8 24.1291 8 27.6667C8 31.5434 11.0886 34.7175 15 34.9822" stroke="#231815" stroke-width="2" stroke-linecap="round" stroke-linejoin="round"/>
<path d="M19.2735 28.875C19.2735 28.3918 19.6652 28 20.1485 28C20.6317 28 21.0235 28.3918 21.0235 28.875V29.9845L21.9843 29.4297C22.4028 29.1881 22.9379 29.3315 23.1796 29.75C23.4212 30.1685 23.2778 30.7036 22.8593 30.9453L21.8985 31.5L22.8593 32.0547C23.2778 32.2964 23.4212 32.8315 23.1796 33.25C22.9379 33.6685 22.4028 33.8119 21.9843 33.5703L21.0235 33.0156V34.125C21.0235 34.6082 20.6317 35 20.1485 35C19.6652 35 19.2735 34.6082 19.2735 34.125V33.0155L18.3126 33.5703C17.8941 33.8119 17.359 33.6685 17.1174 33.25C16.8758 32.8315 17.0191 32.2964 17.4376 32.0547L18.3985 31.5L17.4376 30.9453C17.0191 30.7036 16.8757 30.1685 17.1174 29.75C17.359 29.3315 17.8941 29.1881 18.3126 29.4297L19.2735 29.9845V28.875Z" fill="#231815"/>
<path d="M27.2735 30.875C27.2735 30.3918 27.6652 30 28.1485 30C28.6317 30 29.0235 30.3918 29.0235 30.875V31.9845L29.9843 31.4297C30.4028 31.1881 30.9379 31.3315 31.1796 31.75C31.4212 32.1685 31.2778 32.7036 30.8593 32.9453L29.8985 33.5L30.8593 34.0547C31.2778 34.2964 31.4212 34.8315 31.1796 35.25C30.9379 35.6685 30.4028 35.8119 29.9843 35.5703L29.0235 35.0156V36.125C29.0235 36.6082 28.6317 37 28.1485 37C27.6652 37 27.2735 36.6082 27.2735 36.125V35.0155L26.3126 35.5703C25.8941 35.8119 25.359 35.6685 25.1174 35.25C24.8758 34.8315 25.0191 34.2964 25.4376 34.0547L26.3985 33.5L25.4376 32.9453C25.0191 32.7036 24.8757 32.1685 25.1174 31.75C25.359 31.3315 25.8941 31.1881 26.3126 31.4297L27.2735 31.9845V30.875Z" fill="#231815"/>
<path d="M21.2735 36.375C21.2735 35.8918 21.6652 35.5 22.1485 35.5C22.6317 35.5 23.0235 35.8918 23.0235 36.375V37.4845L23.9843 36.9297C24.4028 36.6881 24.9379 36.8315 25.1796 37.25C25.4212 37.6685 25.2778 38.2036 24.8593 38.4453L23.8985 39L24.8593 39.5547C25.2778 39.7964 25.4212 40.3315 25.1796 40.75C24.9379 41.1685 24.4028 41.3119 23.9843 41.0703L23.0235 40.5156V41.625C23.0235 42.1082 22.6317 42.5 22.1485 42.5C21.6652 42.5 21.2735 42.1082 21.2735 41.625V40.5155L20.3126 41.0703C19.8941 41.3119 19.359 41.1685 19.1174 40.75C18.8758 40.3315 19.0191 39.7964 19.4376 39.5547L20.3985 39L19.4376 38.4453C19.0191 38.2036 18.8757 37.6685 19.1174 37.25C19.359 36.8315 19.8941 36.6881 20.3126 36.9297L21.2735 37.4845V36.375Z" fill="#231815"/>
</svg>

<svg xmlns="http://www.w3.org/2000/svg" width="48" height="48" fill="none">
  <path fill="#F3F3F3" fill-rule="evenodd" d="M33.813 21.064s.184.936.247.945C37.454 22.493 40 24.472 40 28a7 7 0 0 1-7 7H15a7 7 0 0 1-.997-13.93.85.85 0 0 1 .184-.006C15.09 16.468 19.14 13 24 13s8.911 3.468 9.813 8.064Z" clip-rule="evenodd"/>
  <path stroke="#231815" stroke-linecap="round" stroke-linejoin="round" stroke-width="2" d="M33 35h.412C37.05 35 40 32.127 40 28.583c0-3.245-2.473-5.927-5.684-6.356C33.87 17.059 29.421 13 24 13c-4.796 0-8.83 3.176-10.006 7.486-3.422.69-5.994 3.643-5.994 7.18 0 3.877 3.089 7.052 7 7.316"/>
  <path fill="#231815" d="M19.273 28.875a.875.875 0 1 1 1.75 0v1.11l.961-.555a.875.875 0 0 1 .875 1.515l-.96.555.96.555a.875.875 0 0 1-.875 1.515l-.96-.554v1.109a.875.875 0 0 1-1.75 0v-1.11l-.961.555a.875.875 0 0 1-.875-1.515l.96-.555-.96-.555a.875.875 0 0 1 .875-1.515l.96.555v-1.11ZM27.273 30.875a.875.875 0 1 1 1.75 0v1.11l.961-.555a.875.875 0 0 1 .875 1.515l-.96.555.96.555a.875.875 0 0 1-.875 1.515l-.96-.554v1.109a.875.875 0 0 1-1.75 0v-1.11l-.961.555a.875.875 0 0 1-.875-1.515l.96-.555-.96-.555a.875.875 0 0 1 .875-1.515l.96.555v-1.11ZM21.273 36.375a.875.875 0 1 1 1.75 0v1.11l.961-.555a.875.875 0 0 1 .875 1.515L23.9 39l.96.555a.875.875 0 0 1-.875 1.515l-.96-.554v1.109a.875.875 0 0 1-1.75 0v-1.11l-.961.555a.875.875 0 0 1-.875-1.515l.96-.555-.96-.555a.875.875 0 0 1 .875-1.515l.96.554v-1.109Z"/>
</svg>
